src/pages/elements/images/keep-it-simple-right-2-mobile.svg

<svg xmlns="http://www.w3.org/2000/svg" viewBox="0 0 288 288"><g fill="none" fill-rule="evenodd"><path fill="#FFF" d="M0 0h288v288H0z"/><path d="M55.024 106.464H43.936V139h-7.392v-32.536H25.456v-6.552h29.568v6.552zm9.184-.952c-2.968 0-4.2-1.512-4.2-3.584v-1.12c0-2.072 1.232-3.584 4.2-3.584 2.912 0 4.2 1.512 4.2 3.584v1.12c0 2.072-1.288 3.584-4.2 3.584zM60.624 139v-29.232h7.168V139h-7.168zm24.584 0c-4.928 0-7.56-2.688-7.56-7.448V115.48h-4.312v-5.712h2.24c2.128 0 2.8-1.008 2.8-3.024v-4.984h6.44v8.008h5.992v5.712h-5.992v17.808h5.544V139h-5.152zm22.848 0h-3.864c-4.872 0-7.168-2.576-7.168-7.056V97.56h7.168v35.728h3.864V139zm17.248.672c-8.624 0-13.776-5.992-13.776-15.344 0-9.24 4.984-15.232 13.552-15.232 9.128 0 13.328 6.72 13.328 14.728v2.352h-19.432v.728c0 4.2 2.408 7.056 7.112 7.056 3.528 0 5.656-1.68 7.448-3.976l3.864 4.312c-2.408 3.304-6.664 5.376-12.096 5.376zm-.112-25.2c-3.752 0-6.216 2.8-6.216 6.832v.448h11.984v-.504c0-4.032-2.072-6.776-5.768-6.776zm-85.288 85.2c-6.384 0-10.528-2.632-13.552-6.664l2.52-2.072c2.744 3.64 6.048 5.768 11.144 5.768 6.048 0 9.408-3.024 9.408-8.176 0-4.816-2.912-6.664-7.896-7.728l-3.472-.728c-7.392-1.512-10.64-5.04-10.64-10.472 0-6.832 5.04-10.36 12.544-10.36 5.824 0 9.8 2.24 12.376 5.992l-2.52 1.848c-2.184-3.08-5.32-4.872-10.024-4.872-5.6 0-9.072 2.464-9.072 7.28 0 4.648 3.136 6.44 8.008 7.448l3.472.728c7.784 1.68 10.528 5.32 10.528 10.696 0 7.112-4.872 11.312-12.824 11.312zM78.936 199v-4.536h-.224c-1.064 2.688-3.416 5.208-8.344 5.208-6.104 0-9.744-3.92-9.744-10.92v-18.424h3.192v17.808c0 5.88 2.632 8.68 7.392 8.68 3.976 0 7.728-2.072 7.728-6.384v-20.104h3.192V199h-3.192zm13.608 0v-41.44h3.192v17.36h.168c1.4-3.192 4.368-5.264 8.736-5.264 7.336 0 11.816 5.544 11.816 15.008 0 9.464-4.48 15.008-11.816 15.008-4.368 0-7.168-2.072-8.736-5.264h-.168V199h-3.192zm11.368-2.184c5.712 0 9.128-3.976 9.128-10.136v-4.032c0-6.16-3.416-10.136-9.128-10.136-4.424 0-8.176 2.632-8.176 6.384v11.368c0 4.032 3.752 6.552 8.176 6.552zM135.104 199h-5.712c-2.296 0-3.528-1.4-3.528-3.528v-22.344h-4.984v-2.8h3.248c1.568 0 2.016-.56 2.016-2.184v-5.824h2.912v8.008h6.496v2.8h-6.496V196.2h6.048v2.8zm9.688-36.456c-1.512 0-2.184-.84-2.184-2.016v-.56c0-1.176.672-2.016 2.184-2.016s2.184.84 2.184 2.016v.56c0 1.176-.672 2.016-2.184 2.016zM143.224 199v-28.672h3.192V199h-3.192zm24.248 0h-5.712c-2.296 0-3.528-1.4-3.528-3.528v-22.344h-4.984v-2.8h3.248c1.568 0 2.016-.56 2.016-2.184v-5.824h2.912v8.008h6.496v2.8h-6.496V196.2h6.048v2.8zm15.736 0h-4.088c-2.296 0-3.528-1.4-3.528-3.472V157.56h3.192v38.64h4.424v2.8zm17.416.672c-7.672 0-12.544-5.6-12.544-15.008s4.872-15.008 12.488-15.008c7.336 0 12.096 5.712 12.096 14.112v1.512H191.44v1.4c0 5.992 3.472 10.192 9.352 10.192 4.088 0 7.112-2.016 8.68-5.768l2.352 1.568c-1.792 4.2-5.768 7-11.2 7zm-.056-27.328c-5.544 0-9.128 4.144-9.128 10.192v.28h17.752v-.448c0-6.048-3.472-10.024-8.624-10.024z" fill="#3D3D3D"/></g></svg>

<?xml version="1.0" encoding="UTF-8"?>
<svg width="288px" height="288px" viewBox="0 0 288 288" version="1.1" xmlns="http://www.w3.org/2000/svg" xmlns:xlink="http://www.w3.org/1999/xlink">
    <!-- Generator: Sketch 51.2 (57519) - http://www.bohemiancoding.com/sketch -->
    <title>Keep it Simple - Right 2</title>
    <desc>Created with Sketch.</desc>
    <defs></defs>
    <g id="Page-1" stroke="none" stroke-width="1" fill="none" fill-rule="evenodd">
        <g id="Type-Basics-Copy" transform="translate(-672.000000, -12075.000000)">
            <g id="Keep-it-Simple---Right-2" transform="translate(672.000000, 12075.000000)">
                <rect id="Rectangle-16-Copy-152" fill="#FFFFFF" x="0" y="0" width="288" height="288"></rect>
                <path d="M55.024,106.464 L43.936,106.464 L43.936,139 L36.544,139 L36.544,106.464 L25.456,106.464 L25.456,99.912 L55.024,99.912 L55.024,106.464 Z M64.208,105.512 C61.24,105.512 60.008,104 60.008,101.928 L60.008,100.808 C60.008,98.736 61.24,97.224 64.208,97.224 C67.12,97.224 68.408,98.736 68.408,100.808 L68.408,101.928 C68.408,104 67.12,105.512 64.208,105.512 Z M60.624,139 L60.624,109.768 L67.792,109.768 L67.792,139 L60.624,139 Z M85.208,139 C80.28,139 77.648,136.312 77.648,131.552 L77.648,115.48 L73.336,115.48 L73.336,109.768 L75.576,109.768 C77.704,109.768 78.376,108.76 78.376,106.744 L78.376,101.76 L84.816,101.76 L84.816,109.768 L90.808,109.768 L90.808,115.48 L84.816,115.48 L84.816,133.288 L90.36,133.288 L90.36,139 L85.208,139 Z M108.056,139 L104.192,139 C99.32,139 97.024,136.424 97.024,131.944 L97.024,97.56 L104.192,97.56 L104.192,133.288 L108.056,133.288 L108.056,139 Z M125.304,139.672 C116.68,139.672 111.528,133.68 111.528,124.328 C111.528,115.088 116.512,109.096 125.08,109.096 C134.208,109.096 138.408,115.816 138.408,123.824 L138.408,126.176 L118.976,126.176 L118.976,126.904 C118.976,131.104 121.384,133.96 126.088,133.96 C129.616,133.96 131.744,132.28 133.536,129.984 L137.4,134.296 C134.992,137.6 130.736,139.672 125.304,139.672 Z M125.192,114.472 C121.44,114.472 118.976,117.272 118.976,121.304 L118.976,121.752 L130.96,121.752 L130.96,121.248 C130.96,117.216 128.888,114.472 125.192,114.472 Z M39.904,199.672 C33.52,199.672 29.376,197.04 26.352,193.008 L28.872,190.936 C31.616,194.576 34.92,196.704 40.016,196.704 C46.064,196.704 49.424,193.68 49.424,188.528 C49.424,183.712 46.512,181.864 41.528,180.8 L38.056,180.072 C30.664,178.56 27.416,175.032 27.416,169.6 C27.416,162.768 32.456,159.24 39.96,159.24 C45.784,159.24 49.76,161.48 52.336,165.232 L49.816,167.08 C47.632,164 44.496,162.208 39.792,162.208 C34.192,162.208 30.72,164.672 30.72,169.488 C30.72,174.136 33.856,175.928 38.728,176.936 L42.2,177.664 C49.984,179.344 52.728,182.984 52.728,188.36 C52.728,195.472 47.856,199.672 39.904,199.672 Z M78.936,199 L78.936,194.464 L78.712,194.464 C77.648,197.152 75.296,199.672 70.368,199.672 C64.264,199.672 60.624,195.752 60.624,188.752 L60.624,170.328 L63.816,170.328 L63.816,188.136 C63.816,194.016 66.448,196.816 71.208,196.816 C75.184,196.816 78.936,194.744 78.936,190.432 L78.936,170.328 L82.128,170.328 L82.128,199 L78.936,199 Z M92.544,199 L92.544,157.56 L95.736,157.56 L95.736,174.92 L95.904,174.92 C97.304,171.728 100.272,169.656 104.64,169.656 C111.976,169.656 116.456,175.2 116.456,184.664 C116.456,194.128 111.976,199.672 104.64,199.672 C100.272,199.672 97.472,197.6 95.904,194.408 L95.736,194.408 L95.736,199 L92.544,199 Z M103.912,196.816 C109.624,196.816 113.04,192.84 113.04,186.68 L113.04,182.648 C113.04,176.488 109.624,172.512 103.912,172.512 C99.488,172.512 95.736,175.144 95.736,178.896 L95.736,190.264 C95.736,194.296 99.488,196.816 103.912,196.816 Z M135.104,199 L129.392,199 C127.096,199 125.864,197.6 125.864,195.472 L125.864,173.128 L120.88,173.128 L120.88,170.328 L124.128,170.328 C125.696,170.328 126.144,169.768 126.144,168.144 L126.144,162.32 L129.056,162.32 L129.056,170.328 L135.552,170.328 L135.552,173.128 L129.056,173.128 L129.056,196.2 L135.104,196.2 L135.104,199 Z M144.792,162.544 C143.28,162.544 142.608,161.704 142.608,160.528 L142.608,159.968 C142.608,158.792 143.28,157.952 144.792,157.952 C146.304,157.952 146.976,158.792 146.976,159.968 L146.976,160.528 C146.976,161.704 146.304,162.544 144.792,162.544 Z M143.224,199 L143.224,170.328 L146.416,170.328 L146.416,199 L143.224,199 Z M167.472,199 L161.76,199 C159.464,199 158.232,197.6 158.232,195.472 L158.232,173.128 L153.248,173.128 L153.248,170.328 L156.496,170.328 C158.064,170.328 158.512,169.768 158.512,168.144 L158.512,162.32 L161.424,162.32 L161.424,170.328 L167.92,170.328 L167.92,173.128 L161.424,173.128 L161.424,196.2 L167.472,196.2 L167.472,199 Z M183.208,199 L179.12,199 C176.824,199 175.592,197.6 175.592,195.528 L175.592,157.56 L178.784,157.56 L178.784,196.2 L183.208,196.2 L183.208,199 Z M200.624,199.672 C192.952,199.672 188.08,194.072 188.08,184.664 C188.08,175.256 192.952,169.656 200.568,169.656 C207.904,169.656 212.664,175.368 212.664,183.768 L212.664,185.28 L191.44,185.28 L191.44,186.68 C191.44,192.672 194.912,196.872 200.792,196.872 C204.88,196.872 207.904,194.856 209.472,191.104 L211.824,192.672 C210.032,196.872 206.056,199.672 200.624,199.672 Z M200.568,172.344 C195.024,172.344 191.44,176.488 191.44,182.536 L191.44,182.816 L209.192,182.816 L209.192,182.368 C209.192,176.32 205.72,172.344 200.568,172.344 Z" id="Title-Subtitle" fill="#3D3D3D"></path>
            </g>
        </g>
    </g>
</svg>
